X: 33001
T: Pretty Peg
R: polka
M: 2/4
K: Gmajor
d|gg fd|gg fd|gg f/e/d|e3d|
e>d ef|gg B>c|dd c/B/A|(G2 G)>A|
BB/B/ B/A/G/A/|BG2A|BB/B/ B/A/G/A/|B2d2||

